X:2
T:Cottage on the hill - hard
C:Taken down by the Schoolmaster, Sth. Brent from R. Hard 1888.
%%VWML:SBG-1-1-199-0
F:http://www.vwml.org/record/SBG/1/1/199
Z:Original Sibleius Transcription by Martin and Shan Graebe
M:6/8
L:1/8
K:Bb
F | Bc (B2A) G | F2 ED2F | B,CB,D2E | FF2< F2B  c|
ded cAB|(d2c2)Bc | ded c2A|B3z2||
T:Cottage on the hill - parsons
T:Taken down from Jas. Parsons, by S.B.G. 1888.
M:6/8
L:1/8
K:Bb
B | BABd2d | cBAG2A | ABA G^FG | AA/A/ !fermata!D2 Bc | d>ed cBc |
w:For four-teen long miles I tra-velled one day. A neat li-tle co-tage I passed on my way. Which I ne-ver be-fore *did 
d3 B2 c | d>ed cBA | B3z2d | dcB c2 c | dcB A2A | BcB AGA |
w:see, which I ne-ver be-fore *did see. I bold-ly stepped up to that cot-tage door a sweet pret-ty dam-sel she 
B2B/B/ D2 GA | BcB AGG | d2d gBc | ded c>A/ |B4z2 ||
w:stood on the floor. Pray* what dost thou want* said she, said she, Pray* what dost thou want said she. 
T:Cottage on the hill - crossing
T:Taken down by W. Crossing from an old man on Dartmoor abt. 1857.
M:6/8
L:1/8
K:C
ccc c>BA | GGF E2D | CCC E>DC | GGGG2 z|
AAA B>AB |e2 c c>de | f2>d2dc | B>ABc2 z||
T:Cottage on the hill - kidson 1
T:Taken down in Yorkshire by Frank Kidson.
M:6/8
L:1/8
K:C
G | c2 c cBA | G2 GG2F | E2 E EDC | G2 G2<G2 | F3E3 |
FGA GAB | (c2e2<d2) | G3G3 | ABc BAB |(c3c2) ||
T:Cottage on the hill - kidson 2
T:Taken down in Yorkshire by F. Kidson.
M:6/8
L:1/8
K:C
G | c2 dc2A | (GE) GD2E | FGF EDC | G2 G2<G2 | F3E3 |
FGA GAB | (c2 e2<d2) | G3G3 | ABc Bcd |(c3c2) |


